X:1
T:Rex Maximus, 11.10.11.10.11.11
T:Johann G. Hille, 1739
T:Rex Maximus, 11.10.11.10.11.11
T:Public Domain
C:Johann G. Hille, 1739
Z:Public Domain
%%score ( 1 2 ) ( 3 4 )
L:1/8
M:3/4
K:F
V:1 treble 
V:2 treble 
V:3 bass 
V:4 bass 
V:1
 [CF]2 C2 [DF]2 | [FA]2 [EG]2 [DF]2 | [^CA]2 [DA]2 [F=B]2 | [Fc]2 [Ec]4 | [Fc]2 [Fc]2 [Ec]2 | %5
 [Ff]2 [Gc]2 [FA]2 | [Fd]2 [Ec]2 [FA]2 | [EG]6 | [CF]2 C2 [DF]2 | [FA]2 [EG]2 [DF]2 | %10
 [^CA]2 [DA]2 [F=B]2 | [Fc]2 [Ec]4 | [Fc]2 [Fc]2 [Ec]2 | [Ff]2 [Gc]2 [FA]2 | [Fd]2 [Ec]2 [FA]2 | %15
 [EG]6 | [EG]2 [CG]2 [DG]2 | [CE]2 C2 [Ec]2 | [FB]2 [Gc]2 [FA]2 | [FG]2 [EG]4 | F2 [FA]2 [Gc]2 | %21
 [Ff]2 [Gc]2 [FA]2 | (FG) [FA]2 [EG]2 | (CD) [CF]4 |] %24
V:2
 x2 C2 x2 | x6 | x6 | x6 | x6 | x6 | x6 | x6 | x2 C2 x2 | x6 | x6 | x6 | x6 | x6 | x6 | x6 | x6 | %17
 x2 C2 x2 | x6 | x6 | F2 x4 | x6 | B2 x4 | F2 x4 |] %24
V:3
 [F,A,]2 [E,G,]2 [D,A,]2 | [C,C]2 [^C,B,]2 [D,A,]2 | [E,G,]2 [F,A,]2 G,2 | [C,G,]2 [C,G,]4 | %4
 [F,A,]2 [A,C]2 [B,C]2 | [A,C]2 [E,C]2 [F,C]2 | [B,,B,]2 [C,G,]2 (A,=B,) | [C,C]6 | %8
 [F,A,]2 [E,G,]2 [D,A,]2 | [C,C]2 [^C,B,]2 [D,A,]2 | [E,G,]2 [F,A,]2 G,2 | [C,G,]2 [C,G,]4 | %12
 [F,A,]2 [A,C]2 [B,C]2 | [A,C]2 [E,C]2 [F,C]2 | [B,,B,]2 [C,G,]2 (A,=B,) | [C,C]6 | %16
 [C,C]2 [E,G,]2 [=B,,G,]2 | [C,G,]2 [E,G,]2 [C,G,]2 | [D,D]2 [E,C]2 [F,C]2 | (C=B,) [C,C]4 | %20
 [A,C]2 [F,C]2 [E,G,]2 | [D,A,]2 [E,C]2 [F,C]2 | [B,,D]2 [C,C]2 (CB,) | (A,B,) [F,,A,]4 |] %24
V:4
 x6 | x6 | x4 G,2 | x6 | x6 | x6 | x4 F,2 | x6 | x6 | x6 | x4 G,2 | x6 | x6 | x6 | x4 F,2 | x6 | %16
 x6 | x6 | x6 | C,2 x4 | x6 | x6 | x4 C,2 | F,2 x4 |] %24

